X: 1
T: Packie Duignan's
M: 4/4
L: 1/8
R: reel
K: Gmaj
G3 B d2 ed | d2 ed BE E2 | GFEF GABd | eaag agef |
g2 bg fage | dBGB AGE2 | G2 GF GABc |1 dBAc BE E2 :|2 dBAc BG G2 ||
g3 e a3 f | gabg eaaf | g2 dg bgag | ecAB cdef |g3 e a3 f |
ga (3bag eaa2 |1 (3bag af gfed | Bgfg e3 f :|2 (3bag af gfef | gfge edBA ||
